X:172
T:Love Is a Tormenting Pain
N:"Tenderly" "collected by F. O'Neill"
B:O'Neill's 172
Z:Transcribed by henrik.norbeck@mailbox.swipnet.se
M:3/4
L:1/8
K:F
c2|d2 cd f2|EF2 F2 F/4G/4A3/2|c2 dc AG|A4 c2|
d2 cd f2|EF2 F2 "#"~G2|FGA4 G/4F/4E3/2|F4:|
c2|c2 ""c2 de|""f4 ""a2|""f4 ""e2|""d4 ""c2|
c2 dc Ac|d2 cd ed|e2 c2 c2|c4 3cde|
f2 e2 d2|c2 B2 A2|G2 AG F2|A4 c2|
d2 cd f2|F2 F2 G2|A4 G2|F4||
